app/assets/images/icons/active/bold.svg

<svg width="32" height="232" viewBox="0 0 32 232" xmlns="http://www.w3.org/2000/svg" xmlns:sketch="http://www.bohemiancoding.com/sketch/ns"><title>bold</title><g sketch:type="MSPage" fill="none"><path d="M26.541 141.719c0 4-2.121 7.281-10.121 7.281h-10.92v-25h10.84c7.441 0 9.441 2.84 9.441 6.52 0 2.84-1.759 4.599-4.64 5.4 3.199.6 5.4 2.719 5.4 5.799zm-10.801-12.959h-4.08v5.76h3.76c2.641 0 4-1.08 4-2.961 0-1.84-1.279-2.799-3.68-2.799zm0 9.719h-4.08v5.76h4.28c2.88 0 4.201-.918 4.201-2.879 0-2.12-1.719-2.881-4.401-2.881zm0 0" fill="#206FAC" sketch:type="MSShapeGroup"/><path d="M26.541 101.719c0 4-2.121 7.281-10.121 7.281h-10.92v-25h10.84c7.441 0 9.441 2.84 9.441 6.52 0 2.84-1.759 4.599-4.64 5.4 3.199.6 5.4 2.719 5.4 5.799zm-10.801-12.959h-4.08v5.76h3.76c2.641 0 4-1.08 4-2.961 0-1.84-1.279-2.799-3.68-2.799zm0 9.719h-4.08v5.76h4.28c2.88 0 4.201-.918 4.201-2.879 0-2.12-1.719-2.881-4.401-2.881zm0 0" fill="#fff" sketch:type="MSShapeGroup"/><path d="M26.541 61.719c0 4-2.121 7.281-10.121 7.281h-10.92v-25h10.84c7.441 0 9.441 2.84 9.441 6.52 0 2.84-1.759 4.599-4.64 5.4 3.199.6 5.4 2.719 5.4 5.799zm-10.801-12.959h-4.08v5.76h3.76c2.641 0 4-1.08 4-2.961 0-1.84-1.279-2.799-3.68-2.799zm0 9.719h-4.08v5.76h4.28c2.88 0 4.201-.918 4.201-2.879 0-2.12-1.719-2.881-4.401-2.881zm0 0" fill="#67737B" sketch:type="MSShapeGroup"/><path d="M26.541 21.719c0 4-2.121 7.281-10.121 7.281h-10.92v-25h10.84c7.441 0 9.441 2.84 9.441 6.52 0 2.84-1.759 4.599-4.64 5.4 3.199.6 5.4 2.719 5.4 5.799zm-10.801-12.959h-4.08v5.76h3.76c2.641 0 4-1.08 4-2.961 0-1.84-1.279-2.799-3.68-2.799zm0 9.719h-4.08v5.76h4.28c2.88 0 4.201-.918 4.201-2.879 0-2.12-1.719-2.881-4.401-2.881zm0 0" fill="#3A434E" sketch:type="MSShapeGroup"/></g></svg>

<?xml version="1.0" encoding="UTF-8" standalone="no"?>
<svg width="32px" height="232px" viewBox="0 0 32 232" version="1.1" xmlns="http://www.w3.org/2000/svg" xmlns:xlink="http://www.w3.org/1999/xlink" xmlns:sketch="http://www.bohemiancoding.com/sketch/ns">
    <title>bold</title>
    <description>Created with Sketch (http://www.bohemiancoding.com/sketch)</description>
    <defs></defs>
    <g id="Actions" stroke="none" stroke-width="1" fill="none" fill-rule="evenodd" sketch:type="MSPage">
        <path d="M26.541,141.719 C26.541,145.719 24.42,149 16.42,149 L5.5,149 L5.5,124 L16.34,124 C23.781,124 25.781,126.84 25.781,130.52 C25.781,133.36 24.022,135.119 21.141,135.92 C24.34,136.52 26.541,138.639 26.541,141.719 C26.541,141.719 26.541,138.639 26.541,141.719 L26.541,141.719 L26.541,141.719 Z M15.74,128.76 L11.66,128.76 L11.66,134.52 L15.42,134.52 C18.061,134.52 19.42,133.44 19.42,131.559 C19.42,129.719 18.141,128.76 15.74,128.76 L15.74,128.76 L15.74,128.76 L15.74,128.76 Z M15.74,138.479 L11.66,138.479 L11.66,144.239 L15.94,144.239 C18.82,144.239 20.141,143.321 20.141,141.36 C20.141,139.24 18.422,138.479 15.74,138.479 L15.74,138.479 Z M15.74,138.479" id="bold--lp-blue" fill="#206FAC" sketch:type="MSShapeGroup"></path>
        <path d="M26.541,101.719 C26.541,105.719 24.42,109 16.42,109 L5.5,109 L5.5,84 L16.34,84 C23.781,84 25.781,86.84 25.781,90.52 C25.781,93.36 24.022,95.119 21.141,95.92 C24.34,96.52 26.541,98.639 26.541,101.719 C26.541,101.719 26.541,98.639 26.541,101.719 L26.541,101.719 L26.541,101.719 Z M15.74,88.76 L11.66,88.76 L11.66,94.52 L15.42,94.52 C18.061,94.52 19.42,93.44 19.42,91.559 C19.42,89.719 18.141,88.76 15.74,88.76 L15.74,88.76 L15.74,88.76 L15.74,88.76 Z M15.74,98.479 L11.66,98.479 L11.66,104.239 L15.94,104.239 C18.82,104.239 20.141,103.321 20.141,101.36 C20.141,99.24 18.422,98.479 15.74,98.479 L15.74,98.479 Z M15.74,98.479" id="bold--white" fill="#FFFFFF" sketch:type="MSShapeGroup"></path>
        <path d="M26.541,61.719 C26.541,65.719 24.42,69 16.42,69 L5.5,69 L5.5,44 L16.34,44 C23.781,44 25.781,46.84 25.781,50.52 C25.781,53.36 24.022,55.119 21.141,55.92 C24.34,56.52 26.541,58.639 26.541,61.719 C26.541,61.719 26.541,58.639 26.541,61.719 L26.541,61.719 L26.541,61.719 Z M15.74,48.76 L11.66,48.76 L11.66,54.52 L15.42,54.52 C18.061,54.52 19.42,53.44 19.42,51.559 C19.42,49.719 18.141,48.76 15.74,48.76 L15.74,48.76 L15.74,48.76 L15.74,48.76 Z M15.74,58.479 L11.66,58.479 L11.66,64.239 L15.94,64.239 C18.82,64.239 20.141,63.321 20.141,61.36 C20.141,59.24 18.422,58.479 15.74,58.479 L15.74,58.479 Z M15.74,58.479" id="bold--body-grey" fill="#67737B" sketch:type="MSShapeGroup"></path>
        <path d="M26.541,21.719 C26.541,25.719 24.42,29 16.42,29 L5.5,29 L5.5,4 L16.34,4 C23.781,4 25.781,6.84 25.781,10.52 C25.781,13.36 24.022,15.119 21.141,15.92 C24.34,16.52 26.541,18.639 26.541,21.719 C26.541,21.719 26.541,18.639 26.541,21.719 L26.541,21.719 L26.541,21.719 Z M15.74,8.76 L11.66,8.76 L11.66,14.52 L15.42,14.52 C18.061,14.52 19.42,13.44 19.42,11.559 C19.42,9.719 18.141,8.76 15.74,8.76 L15.74,8.76 L15.74,8.76 L15.74,8.76 Z M15.74,18.479 L11.66,18.479 L11.66,24.239 L15.94,24.239 C18.82,24.239 20.141,23.321 20.141,21.36 C20.141,19.24 18.422,18.479 15.74,18.479 L15.74,18.479 Z M15.74,18.479" id="bold--title-grey" fill="#3A434E" sketch:type="MSShapeGroup"></path>
    </g>
</svg>
